source/images/bg-activities.svg

<svg width="727" height="485" fill="none" xmlns="http://www.w3.org/2000/svg"><path d="M521.266 37.686c-66.008 0-124.677 31.199-162.212 79.588l125.73 125.73-125.658 125.634c37.534 48.365 96.203 79.516 162.164 79.516 113.346 0 205.223-91.876 205.223-205.222 0-113.37-91.901-205.246-205.247-205.246zM313.653 242.812c0-47.695 16.998-91.398 45.233-125.443L242.385.844.512 242.717l242.255 242.255 116.334-116.334a175.206 175.206 0 0 1-4.446-5.953c-25.605-33.232-41.002-74.712-41.002-119.873z" fill="#080808"/><path d="M359.054 117.274l-.048-.048c-.048.048-.072.096-.12.144l.048.048a.636.636 0 0 0 .12-.144z" fill="#EA1877"/><path d="M359.078 117.273c-27.996 33.232-46.548 81.167-45.305 128.432 1.339 50.78 15.994 85.278 41.025 116.836 1.506 1.961 2.726 4.16 4.303 6.072L484.76 242.979 359.078 117.273z" fill="#F1B114"/></svg>

<svg width="727" height="485" viewBox="0 0 727 485" fill="none" xmlns="http://www.w3.org/2000/svg">
<path d="M521.266 37.6858C455.258 37.6858 396.589 68.8849 359.054 117.274L484.784 243.004L359.126 368.638C396.66 417.003 455.329 448.154 521.29 448.154C634.636 448.154 726.513 356.278 726.513 242.932C726.513 129.562 634.612 37.6858 521.266 37.6858Z" fill="#080808"/>
<path d="M313.653 242.812C313.653 195.117 330.651 151.414 358.886 117.369L242.385 0.843994L0.512207 242.717L242.767 484.972L359.101 368.638C357.571 366.677 356.089 364.693 354.655 362.685C329.05 329.453 313.653 287.973 313.653 242.812Z" fill="#080808"/>
<path d="M359.054 117.274L359.006 117.226C358.958 117.274 358.934 117.322 358.886 117.37L358.934 117.418C358.982 117.37 359.03 117.322 359.054 117.274Z" fill="#EA1877"/>
<path d="M359.078 117.273C331.082 150.505 312.53 198.44 313.773 245.705C315.112 296.485 329.767 330.983 354.798 362.541C356.304 364.502 357.524 366.701 359.101 368.613L484.76 242.979L359.078 117.273Z" fill="#F1B114"/>
</svg>
